X: 594
T: Tingfang wugeng
%%abc-version 2.0
%%abcx-abcm2ps-target-version 5.9.1 (29 Sep 2008)
%%abc-creator hum2abc beta
%%abcx-conversion-date 2013/10/02 07:52:30
%%abc-edited-by Helmut Schaffrath
%%humdrum-veritas 310279972
%%humdrum-veritas-data 2848296686
%%continueall 1
%%barnumbers 0
L: 1/8
M: 2/4
K: F
G2G G [I:setbarnb 1]| 
A G F D | 
G4 | 
c2d c | 
B2c A | 
G2G A | 
G F E D | 
F3G | 
F4 | 
d f d c | 
B2c2 | 
d f d c | 
B2c A | 
G2G A | 
G F E D | 
F4 | 
D F D F | 
G4 | 
c3A | 
G2c2 | 
G A G F | 
DF2G | 
D C B, A, | 
C4 | 
D F G F | 
C4 |]  



